X:7
T: Belle Katrine
I: Belle KatrineR-115Creel
M: C|
R: reel
K: C
%%textfont       Times-Roman 9.0
%%text Repeat both parts 4 times
%%vskip 4pt
%%textfont       Times-Roman 7.0
% NOTE: can modify PS files - look for end1 and change (1) to (1,3) & (2) to (2,4)
"C"EGce dccc| EGce dccc| "G"Bcde fefg |1 ag^fg "C"eccc :|2 ag^fg "C"c4 |]
|:"C"eg2g gagf| eggg "F"a4| "G"eggg bag^f |1 ag^fg "C"eccc :|2 ag^fg "C"c4 |]
%%text Roaring Jelly  R-115
%%text 08/29/98
